icon/pk/battery-failure.svg

<svg viewBox="0 0 48 48" fill="none" xmlns="http://www.w3.org/2000/svg" height="1em" width="1em">
  <rect x="14" y="44" width="36" height="20" rx="2" transform="rotate(-90 14 44)" fill="#2F88FF" stroke="black" stroke-width="4" stroke-linecap="round" stroke-linejoin="round"/>
  <path d="M20 6L20 4C20 2.89543 20.8954 2 22 2L26 2C27.1046 2 28 2.89543 28 4L28 6L20 6Z" fill="black"/>
  <path d="M24 30V27C26.2091 27 28 24.9853 28 22.5C28 20.0147 26.2091 18 24 18C21.7909 18 20 20.0147 20 22.5" stroke="white" stroke-width="4" stroke-linecap="round" stroke-linejoin="round"/>
  <path d="M26 35.5C26 36.6046 25.1046 37.5 24 37.5C22.8954 37.5 22 36.6046 22 35.5C22 34.3954 22.8954 33.5 24 33.5C25.1046 33.5 26 34.3954 26 35.5Z" fill="white" stroke="white"/>
</svg>

<svg width="48" height="48" fill="none" xmlns="http://www.w3.org/2000/svg"><rect x="14" y="44" width="36" height="20" rx="2" transform="rotate(-90 14 44)" fill="#2F88FF" stroke="#000" stroke-width="4" stroke-linecap="round" stroke-linejoin="round"/><path d="M20 6V4a2 2 0 0 1 2-2h4a2 2 0 0 1 2 2v2h-8Z" fill="#000"/><path d="M24 30v-3c2.21 0 4-2.015 4-4.5S26.21 18 24 18s-4 2.015-4 4.5" stroke="#fff" stroke-width="4" stroke-linecap="round" stroke-linejoin="round"/><path d="M26 35.5a2 2 0 1 1-4 0 2 2 0 0 1 4 0Z" fill="#fff" stroke="#fff"/></svg>
